assets/flags/gy.svg

<svg viewBox="0 0 500 300" xmlns="http://www.w3.org/2000/svg"><path d="m0 0h500v300h-500z" fill="#009e49"/><path d="m0 0 500 150-500 150z" fill="#fff"/><path d="m0 13.05 456 136.95-456 136.95z" fill="#fcd116"/><path d="m0 0 250 150-250 150z"/><path d="m0 17.5 220.85 132.5-220.85 132.5z" fill="#ce1126"/></svg>

<svg xmlns="http://www.w3.org/2000/svg" viewBox="0 0 500 300">
<rect width="500" height="300" fill="#009e49"/>
<path d="M 0,0 L 500,150 L 0,300 z" fill="#fff"/>
<path d="M 0,13.05 L 456,150 L 0,286.95 z" fill="#fcd116"/>
<path d="M 0,0 L 250,150 L 0,300 z" fill="#000"/>
<path d="M 0,17.5 L 220.85,150 L 0,282.5 z" fill="#ce1126"/>
</svg>
